X: 14975
T: General Gathering 1745, The
R: jig
M: 6/8
K: Dmajor
f|:d2F FGF|ABc def|edc dcB|A2E E2f|
d2F FGF|ABc def|edc dcB|1 A2F F2f:|2 A2F F2d||
|:AGF AGF|AGF ABc|dcB AGF|A2E E2B|
[1 AGF AGF|ABc def|edc dcB|A2F F2d:|
[2 AGF ABc|def efg|agf edc|dAF F2||

